X:1
T:Title
%%score { ( 1 3 ) | 2 }
L:1/8
M:4/4
K:D
V:1 treble nm="Grand Piano"
V:3 treble 
V:2 bass 
V:1
 z4 z2[Q:1/4=108] [FA]>[EG] | F2 E2 D2 d2 | c2 B2 A2 F>E | D2 F2 [FA]2 [DF]2 |[M:3/4] [DF]2 [CE]4 | %5
[M:1/4] [CA]>[CG] |[M:4/4] F2 E2 D2 d>d | c2 B2 A2 G>F | E2 A2 B2 c2 |[M:3/4] [DB]2 [CA]4 | %10
[M:1/4] A2 |[M:4/4] B2 G>G G2 B2 | [FA]2 F2 F2 F>E | D2 F2 [FA]2 [DF]2 |[M:3/4] [DF]2 [CE]4 | %15
[M:1/4] A3/2 z/ |[M:4/4] F2 E2 D2 d>d |[M:9/8] c2 B- B A2- A [DGB]2 | %18
[M:4/4] [DFA]2 [A,EG]>[A,DF] [G,CE]2 [A,CF]2 |[M:3/4] [F,D]6 |[M:1/4] [DFA]2 |[M:4/4] B6 z2 | %22
 A6 z2 | [DFA]2 [A,EG]>[A,DF] [A,CE]2 [DGB]2 |[M:3/4] A6 |[M:1/4] [FA]2 |[M:4/4] B6 z2 | A6 z2 | %28
 [DFA]2 [A,EG]>[A,DF] [G,CE]2 [A,CF]2 |[M:3/4][K:bass] [F,D]6 |] %30
V:2
 z4 z2 [D,A,]>[D,A,] | [D,A,D]2 [D,G,D]2 [D,F,]2 [D,B,D]2 | %2
 [D,A,D]2 [D,G,D]2 [D,F,D]2 [D,A,D]>[D,G,D] | [D,F,]2 [D,A,D]2 [D,D]2 [D,A,]2 | %4
[M:3/4] [A,,A,]2 [A,,A,]4 |[M:1/4] [A,,A,]>[A,,A,] | %6
[M:4/4] [D,A,D]2 [D,G,D]2 [D,F,]2 [D,B,D]>[D,B,D] | [D,A,D]2 [D,G,D]2 [D,F,D]2 [D,B,D]>[D,A,D] | %8
 [E,A,C]2 [E,A,C]2 [E,^G,D]2 [E,G,E]2 |[M:3/4] [A,,A,]2 [A,,A,]4 |[M:1/4] [D,F,D]2 | %11
[M:4/4][K:treble] [G,D]2 [G,B,D]>[G,B,D] [G,B,D]2 [G,DG]2 | %12
 [D,D]2 [D,A,D]2 [D,A,D]2 [D,A,D]>[D,G,D] | [D,F,]2 [D,A,D]2 [D,D]2 [D,A,]2 | %14
[M:3/4] [A,,A,]2 [A,,A,]4 |[M:1/4] [A,,A,]2 |[M:4/4] [D,A,D]2 [D,G,D]2 [D,F,]2 [D,B,D]>[D,B,D] | %17
[M:9/8] [D,A,D]2 [D,G,D]- [D,G,D] [D,F,D]2- [D,F,D] G,,2 |[M:4/4] A,,2 A,,>A,, A,,2 A,,2 | %19
[M:3/4] D,6 |[M:1/4] D,2 |[M:4/4][K:treble] [G,DG]2 [G,D]>[G,D] [G,D]2 [G,DG]2 | %22
 [D,D]2 [D,D]>[D,D] [D,D]2 [D,D]2 | A,,2 A,,>A,, A,,2 A,,2 |[M:3/4] [D,D]2 [D,D]2 [D,D]2 | %25
[M:1/4] [D,D]2 |[M:4/4][K:treble] [G,DG]2 [G,D]>[G,D] [G,D]2 [G,DG]2 | %27
 [D,D]2 [D,D]>[D,D] [D,D]2 [D,D]2 | A,,2 A,,>A,, A,,2 A,,2 |[M:3/4] D,6 |] %30
V:3
 x8 | x8 | x8 | x8 |[M:3/4] x6 |[M:1/4] x2 |[M:4/4] x8 | x8 | x8 |[M:3/4] x6 |[M:1/4] x2 | %11
[M:4/4] x8 | x8 | x8 |[M:3/4] x6 |[M:1/4] C->[CG] |[M:4/4] x8 |[M:9/8] x9 |[M:4/4] x8 |[M:3/4] x6 | %20
[M:1/4] x2 |[M:4/4] z2 G>G G2 B2 | F2 F>F F2 [FA]2 | x8 |[M:3/4] F2 F2 F2 |[M:1/4] x2 | %26
[M:4/4] z2 G>G G2 B2 | F2 F>F F2 [FA]2 | x8 |[M:3/4][K:bass] x6 |] %30

